X:30
T:Planxty Hewlett
R:Other
O:Ireland
M:3/4
C:Turlough O'Carolan
K:D
A2|\
FA D2 FG|AB c2A2|d2f2 fg|fed2 dB|\
A2F2 FA|G3A BG|AF DA DA|D4::
A2|\
A2D2 AB|A2D2AB|AF d2de|dc BA GF|\
G2GF GA|G2GF GA|G2GA BG|AF D2 D2|
FE F2G2|AB c2A2|d2f2 fg|fed2dB|\
A2F2FA|G3A BG|AF DA DA|D4:|
